X:1
T:Title
%%score { 1 | ( 2 3 ) }
L:1/8
M:3/2
K:B
V:1 treble nm="Grand Piano"
V:2 bass 
V:3 bass 
V:1
 z4 z2[Q:1/4=112] G2 ^^F2 G2 | B3 B =A2 G2 [=A,DF]2 [B,DG]2 | [=A,DF]4 E4 G4 | F6 B2 B2 c2 | %4
[M:3/4] [DB]6 | G2 ^^F2 G2 |[M:6/4] B3 B =A2 G2 [=A,DF]2 [B,DG]2 | %7
 [G,CE]4 [=A,EF]2- [A,EF]2 [^A,E^^F]4 | [B,EG]6 [G,B,E]2 [=A,CE]2 [A,DF]2 |[M:3/4] [G,E]6 | %10
 [B,GB]2 [C^^FA]2 [B,GB]2 |[M:6/4] [^^Fd]3 [Fc] [^FB]2 [DF]2 [D^^F]2 [D=A]2 | [EG]4 E2- E2 F4 | %13
 F6 B2 B2 c2 |[M:3/4] [DB]6 | [GB]2 [^^FA]2 [GB]2 |[M:6/4] [Ge]3 [GB] [Gc]2 [G=d]2 [^Ec]2 [EG]2 | %17
 [=DGB]4 [F=A]2- [FA]2 [=A,EF]4 | [EB]6 [G,B,E]2 [=A,CE]2 [A,DF]2 |[M:3/4] [G,E]6 |] %20
V:2
 z4 z2 [E,B,E]2 [E,A,E]2 [E,B,E]2 | [E,G,E]3 [E,G,E] [E,CE]2 [E,B,E]2 B,,2 B,,2 | z4 G,4 [E,B,E]4 | %3
 [F,B,D]6 [F,B,D]2 [F,G,D]2 [F,A,E]2 |[M:3/4] [B,,B,]6 | [E,B,E]2 [E,A,E]2 [E,B,E]2 | %6
[M:6/4] [E,G,E]3 [E,G,E] [E,CE]2 [E,B,E]2 B,,2 B,,2 | C,4 C,2- C,2 ^B,,4 | B,,6 B,,2 B,,2 B,,2 | %9
[M:3/4] E,6 | E,2 E,2 E,2 |[M:6/4] [E,A,]3 [E,A,] [D,=A,]2 [D,A,]2 [B,,G,]2 [B,,F,]2 | %12
 C,4- [C,G,C]2- [C,G,C]2 [F,A,E]4 | [F,B,D]6 [F,B,D]2 [F,G,D]2 [F,A,E]2 |[M:3/4] [B,,B,]6 | %15
 [E,B,]2 [E,C]2 [E,B,]2 |[M:6/4] [E,B,]3 [E,=D] [E,C]2 [E,B,]2 [B,,B,]2 [C,C]2 | z4 C2- C2 F,4 | %18
 [B,,G,]6 B,,2 B,,2 B,,2 |[M:3/4] E,6 |] %20
V:3
 x12 | x12 | E,8 z4 | x12 |[M:3/4] x6 | x6 |[M:6/4] x12 | x12 | x12 |[M:3/4] x6 | x6 |[M:6/4] x12 | %12
 .E,6 z6 | x12 |[M:3/4] x6 | x6 |[M:6/4] x12 | .F,12 | x12 |[M:3/4] x6 |] %20

